X:1
T:Thomas Hastings
T:Hastings
%%score { ( 1 2 ) | ( 3 4 ) }
L:1/8
M:3/4
K:Bb
V:1 treble 
V:2 treble 
V:3 bass 
V:4 bass 
V:1
 FF | G3 G Bc | d4 dd | cA G2 B2 | A4 FF | e3 c AF | d4 BB | Gc B2 A2 | B4 | B6 | B6 |] %11
V:2
 DD | E3 D EF | F4 FF | FF =E2 G2 | F4 FF | F3 F FF | F4 FF | EG F2 E2 | E4 | E6 | D6 |] %11
V:3
 B,B, | B,3 B, B,A, | B,4 B,B, | CC C2 C2 | C4 A,A, | C3 A, CA, | B,4 B,B, | B,E D2 C2 | B,4 | %9
 G,6 | F,6 |] %11
V:4
 B,,B,, | B,,3 B,, G,F, | B,,4 B,B, | A,F, C,4 | C,4 F,F, | F,3 F, F,F, | B,,4 D,D, | %7
 E,C, F,2 F,2 | B,,4 | E,6 | B,,6 |] %11

